!!!COM: Palestrina, Giovanni Perluigi da
!!!OPR: Je suis desheritee
!!!OTL: Agnus II
**kern	**kern	**kern	**kern	**kern
*Ibass	*Ibass	*Itenor	*Icalto	*Icant
!Bassus 2	!Bassus 1	!Tenor	!Altus	!Cantus
*clefF4	*clefF4	*clefGv2	*clefG2	*clefG2
*k[b-]	*k[b-]	*k[b-]	*k[b-]	*k[b-]
*D:aeo	*D:aeo	*D:aeo	*D:aeo	*D:aeo
*M4/2	*M4/2	*M4/2	*M4/2	*M4/2
=1	=1	=1	=1	=1
0r	0r	0r	1.a	1r
.	.	.	.	[1a
.	.	.	2a	.
=2	=2	=2	=2	=2
0r	0r	0r	2.cc	2a]
.	.	.	.	2a
.	.	.	4b-	.
.	.	.	4a	1cc
.	.	.	4g	.
.	.	.	4f	.
.	.	.	4e	.
=3	=3	=3	=3	=3
0r	1r	0r	4d	1dd
.	.	.	4c	.
.	.	.	1d	.
.	[1A	.	.	[1ee
.	.	.	4c	.
.	.	.	4B-	.
=4	=4	=4	=4	=4
0r	2A]	1.A	2.c	1ee]
.	2A	.	.	.
.	.	.	4d	.
.	2.c	.	2.e	2r
.	.	2A	.	[2a
.	4B-	.	4d	.
=5	=5	=5	=5	=5
0r	4A	1c	2e	2a]
.	4G	.	.	.
.	4F	.	1f	2a
.	4E	.	.	.
.	1D	1d	.	1ff
.	.	.	4e	.
.	.	.	4d	.
=6	=6	=6	=6	=6
1r	1A	0e	2.c	2ee
.	.	.	.	1a
.	.	.	4d	.
[1A	1r	.	[1e	.
.	.	.	.	2a
=7	=7	=7	=7	=7
2A]	0r	2r	1e]	2.cc
2A	.	1A	.	.
.	.	.	.	4dd
2.c	.	.	2r	1ee
.	.	2A	2cc	.
4B-	.	.	.	.
=8	=8	=8	=8	=8
4A	0r	1c	2cc	2ee
4G	.	.	.	.
4F	.	.	2cc	2ff
4E	.	.	.	.
1D	.	1d	2b-	2ff
.	.	.	[2a	2ff
=9	=9	=9	=9	=9
1A	2r	2c	4a]	2ee
.	.	.	4g	.
.	2D	2f	4a	1dd
.	.	.	4b-	.
1r	2.F	2f	[1a	.
.	.	2f	.	[2cc
.	4G	.	.	.
=10	=10	=10	=10	=10
0r	2A	2e	2a]	2cc]
.	2B-	1d	2f	1b-
.	2G	.	2g	.
.	2A	2c	[2f	[2a
=11	=11	=11	=11	=11
0r	1B-	1d	4f]	2a]
.	.	.	4e	.
.	.	.	1d	2g
.	1A	1e	.	1a
.	.	.	2c#	.
=12	=12	=12	=12	=12
2r	1D	2f	2d	2r
2D	.	2d	2a	2ff
2.F	1r	2c	[1a	2ff
.	.	2A	.	2ff
4G	.	.	.	.
=13	=13	=13	=13	=13
2A	0r	2c	2a]	2ee
2B-	.	2d	2f	1dd
2G	.	2e	2b-	.
2A	.	[2f	[2a	2cc#
=14	=14	=14	=14	=14
1B-	0r	2f]	2a]	1dd
.	.	4e	2g	.
.	.	4d	.	.
1A	.	1e	1a	4cc
.	.	.	.	4b-
.	.	.	.	4a
.	.	.	.	4g
=15	=15	=15	=15	=15
1D	2r	1d	1a	2f
.	1F	.	.	1a
1r	.	2.c	[1f	.
.	2F	.	.	2a
.	.	4c	.	.
=16	=16	=16	=16	=16
0r	2B-	2d	2f]	2b-
.	2d	2f	2f	2a
.	[1c	2e	2g	[1cc
.	.	[2f	2a	.
=17	=17	=17	=17	=17
0r	1c]	2f]	1g	1cc]
.	.	2e	.	.
.	1F	2f	2cc	2.a
.	.	[2c	2f	.
.	.	.	.	8g
.	.	.	.	8f
=18	=18	=18	=18	=18
2r	0r	2c]	2e	2g
1F	.	2c	2.a	1cc
.	.	2f	.	.
.	.	.	4b-	.
2F	.	2a	4cc	2cc
.	.	.	4a	.
=19	=19	=19	=19	=19
2B-	1r	2g	2b-	2dd
2d	.	2f	2a	1ff
[1c	[1C	[1g	[1cc	.
.	.	.	.	4ee
.	.	.	.	4dd
=20	=20	=20	=20	=20
1c]	2C]	1g]	1cc]	4ee
.	.	.	.	4dd
.	2C	.	.	4cc
.	.	.	.	4b-
1F	2F	4f	1cc	4a
.	.	4e	.	4b-
.	2A	4d	.	[2cc
.	.	4c	.	.
=21	=21	=21	=21	=21
0r	1G	1d	2r	2cc]
.	.	.	1g	2b
.	1C	2e	.	2cc
.	.	2c	2g	[2ee
=22	=22	=22	=22	=22
1r	0r	2c	2cc	2ee]
.	.	1f	2a	2ff
[1C	.	.	1g	2gg
.	.	4e	.	[2cc
.	.	4d	.	.
=23	=23	=23	=23	=23
2C]	0r	2e	2g	4cc]
.	.	.	.	4b-
2C	.	2e	1cc	4a
.	.	.	.	4g
2F	.	4f	.	4a
.	.	4e	.	4b-
2A	.	4d	2f	[2cc
.	.	4c	.	.
=24	=24	=24	=24	=24
1G	0r	1d	1g	2cc]
.	.	.	.	2b
1C	.	2c	1e	1cc
.	.	[2c	.	.
=25	=25	=25	=25	=25
0r	1.F	2c]	0f	1.a
.	.	2A	.	.
.	.	1d	.	.
.	2D	.	.	2a
=26	=26	=26	=26	=26
0r	1A	4c	2e	1a
.	.	4d	.	.
.	.	4e	1a	.
.	.	4c	.	.
.	2.D	4d	.	2.f
.	.	4e	.	.
.	.	[2f	2a	.
.	4E	.	.	4g
=27	=27	=27	=27	=27
0r	4F	2f]	1a	4a
.	4G	.	.	4b-
.	2A	2e	.	2cc
.	1B-	2.d	2.f	4dd
.	.	.	.	4ee
.	.	.	.	[2ff
.	.	4e	4g	.
=28	=28	=28	=28	=28
1.F	1A	0f	4a	2ff]
.	.	.	4b-	.
.	.	.	2cc	4ee
.	.	.	.	4dd
.	2r	.	1a	2cc
2D	[2d	.	.	2dd
=29	=29	=29	=29	=29
1A	2d]	2e	2.a	1ee
.	2c#	1a	.	.
.	.	.	4g	.
2.D	1d	.	4f	[1ff
.	.	.	4e	.
.	.	2a	[2d	.
4E	.	.	.	.
=30	=30	=30	=30	=30
4F	1A	1a	2d]	2ff]
4G	.	.	.	.
2A	.	.	2c#	2ee
1B-	2r	2.f	1d	1dd
.	[2d	.	.	.
.	.	4g	.	.
=31	=31	=31	=31	=31
1A	2d]	1a	1e	2r
.	2c#	.	.	1a
2r	1d	2.f	1d	.
[2d	.	.	.	2a
.	.	8e	.	.
.	.	8d	.	.
=32	=32	=32	=32	=32
2d]	1A	1e	2r	1a
2c#	.	.	1a	.
1d	2r	1d	.	2.f
.	4D	.	2a	.
.	4E	.	.	4g
=33	=33	=33	=33	=33
1A	4F	2r	1a	4a
.	4G	.	.	4b-
.	2A	1a	.	2cc
2r	1D	.	2f	4dd
.	.	.	.	4ee
[2d	.	2a	2d	2ff
=34	=34	=34	=34	=34
2d]	1A	1a	1e	1ee
2c#	.	.	.	.
1d	1D	2.f	[1a	2dd
.	.	.	.	[2ff
.	.	8e	.	.
.	.	8d	.	.
=35	=35	=35	=35	=35
[0A	2.F	2c	0a]	4ff]
.	.	.	.	4ee
.	.	2f	.	1dd
.	4G	.	.	.
.	1A	1e	.	.
.	.	.	.	2cc#
=36	=36	=36	=36	=36
0A]	0D	0d	0f#	0dd
==	==	==	==	==
*-	*-	*-	*-	*-
!!!CDT: 1525/^1526/-1594/2/2
!!!OCY: Italia
!!!AGN: Mass (Parody)
!!!AST: renaissance, vocal
!!!ASW: Chanson 1533 (Lupi or Cadéac)
!!!PWK: Masses, Book 6
!!!RNB: Cadence finals: F
!!!YOR: Le Opere Complete, v. 21, p. 52
!!!YOO: Rome, Italy: Fratelli Scalera
!!!END: 1992//
!!!EED: John Miller
!!!YEC: Copyright 2000, John Miller
!!!YEN: United States of America
!!!YEM: Rights to all derivative electronic formats reserved.
!!!YEM: Refer to licensing agreement for further details.
!!!YEM: This file must be accompanied by the licensing agreement.
!!!YEM: A copy of the licensing agreement may be found at http://www.music-cog.ohio-state.edu/HumdrumDatabases/Palestrina/license.txt
!!!EMD: converted to Humdrum by Bret Aarden
